components/2.0/icon/icons/icon-x-18px.svg

<?xml version="1.0" encoding="UTF-8" standalone="no"?>
<svg width="18px" height="18px" viewBox="0 0 18 18" version="1.1" xmlns="http://www.w3.org/2000/svg" xmlns:xlink="http://www.w3.org/1999/xlink" xmlns:sketch="http://www.bohemiancoding.com/sketch/ns">
    <!-- Generator: Sketch 3.4.4 (17249) - http://www.bohemiancoding.com/sketch -->
    <title>icon-x-18px</title>
    <desc>Created with Sketch.</desc>
    <defs></defs>
    <g id="18px" stroke="none" stroke-width="1" fill="none" fill-rule="evenodd" sketch:type="MSPage">
        <g id="icon-x-18px" sketch:type="MSArtboardGroup" fill="#5A5A5A">
            <path d="M10.4141,9 L14.7071,4.707 C15.0981,4.316 15.0981,3.684 14.7071,3.293 C14.3161,2.902 13.6841,2.902 13.2931,3.293 L9.0001,7.586 L4.7071,3.293 C4.3161,2.902 3.6841,2.902 3.2931,3.293 C2.9021,3.684 2.9021,4.316 3.2931,4.707 L7.5861,9 L3.2931,13.293 C2.9021,13.684 2.9021,14.316 3.2931,14.707 C3.4881,14.902 3.7441,15 4.0001,15 C4.2561,15 4.5121,14.902 4.7071,14.707 L9.0001,10.414 L13.2931,14.707 C13.4881,14.902 13.7441,15 14.0001,15 C14.2561,15 14.5121,14.902 14.7071,14.707 C15.0981,14.316 15.0981,13.684 14.7071,13.293 L10.4141,9 Z" id="x" sketch:type="MSShapeGroup"></path>
        </g>
    </g>
</svg>

<svg width="18" height="18" xmlns="http://www.w3.org/2000/svg"><path d="M10.4 9l4.3-4.3c.4-.4.4-1 0-1.4-.4-.4-1-.4-1.4 0L9 7.6 4.7 3.3c-.4-.4-1-.4-1.4 0-.4.4-.4 1 0 1.4L7.6 9l-4.3 4.3c-.4.4-.4 1 0 1.4.2.2.4.3.7.3.3 0 .5 0 .7-.3L9 10.4l4.3 4.3c.2.2.4.3.7.3.3 0 .5 0 .7-.3.4-.4.4-1 0-1.4L10.4 9z" fill="#5A5A5A" fill-rule="evenodd"/></svg>
